X: 1
T: The Periwig
R: Pipe Reel
O: Scottish
M: 4/4
L: 1/8
K: Emin
~g3b agfa|gfeg dB~B2|~g3b agfa|1 gef^d e3f:|2 gef^d e3g||
|:dB~B2 dBBg|eBBA GEEg|dB~B2 dBBa|1 gef^d e3g:|2 gef^d e3f||
